icons/bitbucket/bitbucket-original-wordmark.svg

<?xml version="1.0" encoding="UTF-8"?>
<svg xmlns="http://www.w3.org/2000/svg" xmlns:xlink="http://www.w3.org/1999/xlink" width="128px" height="px" viewBox="0 0 128 128" version="1.1">
<defs>
<linearGradient id="linear0" gradientUnits="userSpaceOnUse" x1="28.5925" y1="14.2265" x2="16.672" y2="23.5316" gradientTransform="matrix(4,0,0,4,0.255184,-8.676261)">
<stop offset="0.176" style="stop-color:rgb(0%,32.156863%,80%);stop-opacity:1;"/>
<stop offset="1" style="stop-color:rgb(14.901961%,51.764706%,100%);stop-opacity:1;"/>
</linearGradient>
</defs>
<g id="surface1">
<path style=" stroke:none;fill-rule:nonzero;fill:rgb(14.901961%,51.764706%,100%);fill-opacity:1;" d="M 19.335938 11.324219 C 17.417969 11.324219 15.980469 13.082031 16.300781 14.839844 L 29.246094 94.125 C 29.566406 96.203125 31.324219 97.644531 33.402344 97.644531 L 96.066406 97.644531 C 97.503906 97.644531 98.78125 96.523438 99.101562 95.085938 L 112.210938 15 C 112.53125 13.082031 111.089844 11.484375 109.171875 11.484375 Z M 74.324219 68.550781 L 54.34375 68.550781 L 49.070312 40.257812 L 79.28125 40.257812 Z M 74.324219 68.550781 "/>
<path style=" stroke:none;fill-rule:nonzero;fill:url(#linear0);" d="M 107.894531 40.257812 L 79.121094 40.257812 L 74.324219 68.550781 L 54.34375 68.550781 L 30.847656 96.523438 C 30.847656 96.523438 31.964844 97.484375 33.5625 97.484375 L 96.226562 97.484375 C 97.664062 97.484375 98.941406 96.363281 99.261719 94.925781 Z M 107.894531 40.257812 "/>
<path style=" stroke:none;fill-rule:nonzero;fill:rgb(14.509804%,21.960784%,34.509804%);fill-opacity:1;" d="M 3.523438 102.589844 L 11.890625 102.589844 C 15.96875 102.589844 17.9375 104.53125 17.9375 107.636719 C 17.9375 109.976562 16.832031 111.414062 14.585938 111.917969 C 17.523438 112.382812 19.007812 113.957031 19.007812 116.695312 C 19.007812 119.769531 16.867188 121.910156 12.375 121.910156 L 3.523438 121.910156 Z M 6.289062 110.847656 L 11.542969 110.847656 C 14.136719 110.847656 15.207031 109.710938 15.207031 107.839844 C 15.207031 105.96875 14.066406 105.0625 11.542969 105.0625 L 6.289062 105.0625 Z M 6.289062 113.21875 L 6.289062 119.234375 L 12.511719 119.234375 C 15.136719 119.234375 16.3125 118.332031 16.3125 116.394531 C 16.3125 114.324219 15.171875 113.21875 12.441406 113.21875 Z M 6.289062 113.21875 "/>
<path style=" stroke:none;fill-rule:nonzero;fill:rgb(14.509804%,21.960784%,34.509804%);fill-opacity:1;" d="M 23.503906 101.554688 C 24.574219 101.554688 25.335938 102.191406 25.335938 103.328125 C 25.335938 104.429688 24.574219 105.097656 23.503906 105.097656 C 22.429688 105.097656 21.671875 104.460938 21.671875 103.328125 C 21.671875 102.191406 22.429688 101.554688 23.503906 101.554688 Z M 22.152344 107.203125 L 24.78125 107.203125 L 24.78125 121.910156 L 22.152344 121.910156 Z M 22.152344 107.203125 "/>
<path style=" stroke:none;fill-rule:nonzero;fill:rgb(14.509804%,21.960784%,34.509804%);fill-opacity:1;" d="M 34.734375 119.535156 C 35.355469 119.535156 35.910156 119.402344 36.394531 119.335938 L 36.394531 121.777344 C 35.945312 121.910156 35.425781 122.011719 34.632812 122.011719 C 31.382812 122.011719 29.792969 120.171875 29.792969 117.429688 L 29.792969 109.542969 L 27.339844 109.542969 L 27.339844 107.203125 L 29.792969 107.203125 L 29.792969 104.09375 L 32.351562 104.09375 L 32.351562 107.203125 L 36.394531 107.203125 L 36.394531 109.542969 L 32.351562 109.542969 L 32.351562 117.332031 C 32.351562 118.632812 33.144531 119.535156 34.734375 119.535156 Z M 34.734375 119.535156 "/>
<path style=" stroke:none;fill-rule:nonzero;fill:rgb(14.509804%,21.960784%,34.509804%);fill-opacity:1;" d="M 42.339844 119.304688 L 42.339844 121.875 L 39.710938 121.875 L 39.710938 101.054688 L 42.339844 101.054688 L 42.339844 109.84375 C 43.304688 107.90625 45.136719 106.902344 47.488281 106.902344 C 51.53125 106.902344 53.570312 110.210938 53.570312 114.558594 C 53.570312 118.703125 51.429688 122.210938 47.175781 122.210938 C 44.964844 122.210938 43.273438 121.242188 42.339844 119.304688 Z M 46.796875 109.277344 C 44.445312 109.277344 42.375 110.714844 42.375 113.988281 L 42.375 115.160156 C 42.375 118.433594 44.273438 119.871094 46.519531 119.871094 C 49.457031 119.871094 50.980469 118 50.980469 114.589844 C 50.945312 111.015625 49.492188 109.277344 46.796875 109.277344 Z M 46.796875 109.277344 "/>
<path style=" stroke:none;fill-rule:nonzero;fill:rgb(14.509804%,21.960784%,34.509804%);fill-opacity:1;" d="M 56.300781 107.203125 L 58.929688 107.203125 L 58.929688 116.09375 C 58.929688 118.734375 60.035156 119.90625 62.523438 119.90625 C 64.941406 119.90625 66.636719 118.332031 66.636719 115.359375 L 66.636719 107.203125 L 69.261719 107.203125 L 69.261719 121.910156 L 66.636719 121.910156 L 66.636719 119.503906 C 65.667969 121.242188 63.871094 122.210938 61.832031 122.210938 C 58.339844 122.210938 56.335938 119.871094 56.335938 115.828125 L 56.335938 107.203125 Z M 56.300781 107.203125 "/>
<path style=" stroke:none;fill-rule:nonzero;fill:rgb(14.509804%,21.960784%,34.509804%);fill-opacity:1;" d="M 83.917969 121.507812 C 83.019531 121.976562 81.601562 122.175781 80.21875 122.175781 C 74.792969 122.175781 72.269531 119.003906 72.269531 114.488281 C 72.269531 110.042969 74.792969 106.871094 80.21875 106.871094 C 81.601562 106.871094 82.636719 107.035156 83.847656 107.570312 L 83.847656 109.910156 C 82.878906 109.476562 81.84375 109.207031 80.425781 109.207031 C 76.484375 109.207031 74.863281 111.617188 74.863281 114.488281 C 74.863281 117.363281 76.519531 119.769531 80.496094 119.769531 C 82.050781 119.769531 83.019531 119.570312 83.953125 119.234375 L 83.953125 121.507812 Z M 83.917969 121.507812 "/>
<path style=" stroke:none;fill-rule:nonzero;fill:rgb(14.509804%,21.960784%,34.509804%);fill-opacity:1;" d="M 86.890625 121.910156 L 86.890625 101.054688 L 89.515625 101.054688 L 89.515625 114.089844 L 96.046875 107.203125 L 99.46875 107.203125 L 92.316406 114.421875 L 99.78125 121.910156 L 96.21875 121.910156 L 89.515625 115.023438 L 89.515625 121.910156 Z M 86.890625 121.910156 "/>
<path style=" stroke:none;fill-rule:nonzero;fill:rgb(14.509804%,21.960784%,34.509804%);fill-opacity:1;" d="M 108.421875 122.210938 C 102.71875 122.210938 100.230469 119.035156 100.230469 114.523438 C 100.230469 110.078125 102.789062 106.902344 107.417969 106.902344 C 112.121094 106.902344 113.984375 110.042969 113.984375 114.523438 L 113.984375 115.660156 L 102.890625 115.660156 C 103.273438 118.167969 104.929688 119.769531 108.523438 119.769531 C 110.289062 119.769531 111.773438 119.4375 113.15625 118.96875 L 113.15625 121.308594 C 111.914062 121.976562 109.976562 122.210938 108.421875 122.210938 Z M 102.855469 113.488281 L 111.359375 113.488281 C 111.222656 110.746094 109.941406 109.207031 107.316406 109.207031 C 104.550781 109.207031 103.132812 110.945312 102.855469 113.488281 Z M 102.855469 113.488281 "/>
<path style=" stroke:none;fill-rule:nonzero;fill:rgb(14.509804%,21.960784%,34.509804%);fill-opacity:1;" d="M 123.109375 119.535156 C 123.734375 119.535156 124.285156 119.402344 124.769531 119.335938 L 124.769531 121.777344 C 124.320312 121.910156 123.800781 122.011719 123.007812 122.011719 C 119.757812 122.011719 118.167969 120.171875 118.167969 117.429688 L 118.167969 109.542969 L 115.714844 109.542969 L 115.714844 107.203125 L 118.167969 107.203125 L 118.167969 104.09375 L 120.726562 104.09375 L 120.726562 107.203125 L 124.769531 107.203125 L 124.769531 109.542969 L 120.726562 109.542969 L 120.726562 117.332031 C 120.726562 118.632812 121.519531 119.535156 123.109375 119.535156 Z M 123.109375 119.535156 "/>
</g>
</svg>

<svg xmlns="http://www.w3.org/2000/svg" viewBox="0 0 128 128"><defs><linearGradient id="bitbucket-original-wordmark-a" gradientUnits="userSpaceOnUse" x1="28.593" y1="14.226" x2="16.672" y2="23.532" gradientTransform="matrix(4 0 0 4 .255 -8.676)"><stop offset=".176" stop-color="#0052cc"/><stop offset="1" stop-color="#2684ff"/></linearGradient></defs><path d="M19.336 11.324c-1.918 0-3.356 1.758-3.035 3.516l12.945 79.285c.32 2.078 2.078 3.52 4.156 3.52h62.664c1.438 0 2.715-1.122 3.036-2.56L112.21 15c.32-1.918-1.121-3.516-3.04-3.516zm54.988 57.227h-19.98L49.07 40.258h30.211zm0 0" fill="#2684ff"/><path d="M107.895 40.258H79.12L74.324 68.55h-19.98L30.848 96.523s1.117.961 2.715.961h62.664c1.437 0 2.714-1.12 3.035-2.558zm0 0" fill="url(#bitbucket-original-wordmark-a)"/><path d="M3.523 102.59h8.368c4.078 0 6.046 1.941 6.046 5.047 0 2.34-1.105 3.777-3.351 4.281 2.937.465 4.422 2.039 4.422 4.777 0 3.075-2.14 5.215-6.633 5.215H3.523zm2.766 8.258h5.254c2.594 0 3.664-1.137 3.664-3.008s-1.14-2.778-3.664-2.778H6.289zm0 2.37v6.016h6.223c2.625 0 3.8-.902 3.8-2.84 0-2.07-1.14-3.175-3.87-3.175zm0 0M23.504 101.555c1.07 0 1.832.636 1.832 1.773 0 1.102-.762 1.77-1.832 1.77-1.074 0-1.832-.637-1.832-1.77 0-1.137.758-1.773 1.832-1.773zm-1.352 5.648h2.63v14.707h-2.63zm0 0M34.734 119.535c.621 0 1.176-.133 1.66-.2v2.442c-.449.133-.968.235-1.761.235-3.25 0-4.84-1.84-4.84-4.582v-7.887H27.34v-2.34h2.453v-3.11h2.559v3.11h4.043v2.34h-4.043v7.789c0 1.3.793 2.203 2.382 2.203zm0 0M42.34 119.305v2.57h-2.63v-20.82h2.63v8.789c.965-1.938 2.797-2.942 5.148-2.942 4.043 0 6.082 3.309 6.082 7.657 0 4.144-2.14 7.652-6.394 7.652-2.211 0-3.903-.969-4.836-2.906zm4.457-10.028c-2.352 0-4.422 1.438-4.422 4.711v1.172c0 3.274 1.898 4.711 4.145 4.711 2.937 0 4.46-1.871 4.46-5.281-.035-3.574-1.488-5.313-4.183-5.313zm0 0M56.3 107.203h2.63v8.89c0 2.641 1.105 3.813 3.593 3.813 2.418 0 4.114-1.574 4.114-4.547v-8.156h2.625v14.707h-2.625v-2.406c-.969 1.738-2.766 2.707-4.805 2.707-3.492 0-5.496-2.34-5.496-6.383v-8.625zm0 0M83.918 121.508c-.898.469-2.316.668-3.7.668-5.425 0-7.948-3.172-7.948-7.688 0-4.445 2.523-7.617 7.949-7.617 1.383 0 2.418.164 3.629.7v2.34c-.97-.434-2.004-.704-3.422-.704-3.942 0-5.563 2.41-5.563 5.281 0 2.875 1.657 5.282 5.633 5.282 1.555 0 2.524-.2 3.457-.536v2.274zm0 0M86.89 121.91v-20.855h2.626v13.035l6.53-6.887h3.423l-7.153 7.219 7.465 7.488H96.22l-6.703-6.887v6.887zm0 0M108.422 122.21c-5.703 0-8.192-3.175-8.192-7.687 0-4.445 2.56-7.62 7.188-7.62 4.703 0 6.566 3.14 6.566 7.62v1.137h-11.093c.382 2.508 2.039 4.11 5.632 4.11 1.766 0 3.25-.332 4.633-.801v2.34c-1.242.668-3.18.902-4.734.902zm-5.567-8.722h8.504c-.136-2.742-1.418-4.281-4.043-4.281-2.765 0-4.183 1.738-4.46 4.281zm0 0M123.11 119.535c.624 0 1.175-.133 1.66-.2v2.442c-.45.133-.97.235-1.762.235-3.25 0-4.84-1.84-4.84-4.582v-7.887h-2.453v-2.34h2.453v-3.11h2.559v3.11h4.043v2.34h-4.043v7.789c0 1.3.793 2.203 2.382 2.203zm0 0" fill="#253858"/></svg>
